src/components/Icon/assets/check-circle.svg

<svg width="24" height="24" viewBox="0 0 24 24" fill="none" xmlns="http://www.w3.org/2000/svg">
<path fill-rule="evenodd" clip-rule="evenodd" d="M22 12C22 17.523 17.5226 22 12 22C6.47672 22 2 17.5233 2 12C2 6.47672 6.47672 2 12 2C17.5226 2 22 6.47704 22 12ZM20 12C20 7.58165 16.4181 4 12 4C7.58128 4 4 7.58128 4 12C4 16.4187 7.58128 20 12 20C16.4181 20 20 16.4184 20 12ZM7.97112 11.2241L10.7544 13.8959L16.405 8.58647L17.7745 10.044L10.7396 16.6541L6.58609 12.6669L7.97112 11.2241Z" fill="#65676A"/>
</svg>

<svg xmlns="http://www.w3.org/2000/svg" width="24" height="24" viewBox="0 0 24 24">
    <path fill="#65676A" fill-rule="evenodd" d="M12 2c5.523 0 10 4.477 10 10s-4.477 10-10 10S2 17.523 2 12 6.477 2 12 2zm0 2c-4.419 0-8 3.581-8 8 0 4.419 3.581 8 8 8 4.418 0 8-3.582 8-8s-3.582-8-8-8zm4.405 4.586l1.37 1.458-7.035 6.61-4.154-3.987 1.385-1.443 2.783 2.672 5.651-5.31z"/>
</svg>
